X:1
T:Haste Thee, Sinner, Haste Away
T:Haste Thee, Sinner, Haste Away
T:Spiritual Songs, Hastings & Mason, 1834
T:Sacred Lyrics, by Nathan Beman, 1832
T:Public Domain Courtesy of the Cyber Hymnal™
C:Spiritual Songs, Hastings & Mason, 1834
Z:Public Domain
Z:Courtesy of the Cyber Hymnal™
%%score ( 1 2 ) ( 3 4 )
L:1/8
Q:1/4=107
M:2/4
K:C
V:1 treble 
V:2 treble 
V:3 bass 
V:4 bass 
V:1
 [CE]2 [EG]2 | [EG]2 [Gc]2 | [GB]2 [Bd]2 | [Bd]4 | [ce]2 [Gg]2 | [Af]2 [Bd]2 | [ce]4 | %7
w: 1.~Haste thee,|sin- ner,|haste a-|way,|Ven- geance|is at|hand!|
w: 2.~Haste thee,|sin- ner,|haste a-|way|From th’o’er-|whelm- ing|rain!|
w: 3.~Haste thee,|sin- ner,|haste a-|way,|Ere the|tem- pest|falls!|
w: 4.~Haste thee,|sin- ner,|haste a-|way,|While ’tis|mer- cy’s|hour;|
 [B,G]2 [DB]2 | [DB]2 [Bd]2 | [ce]2 [Ec]2 | [Ec]4 | [EA]2 [Ec]2 | [CA]2 [C^F]2 | [B,G]4 | %14
w: From de-|struc- tion|quick- ly|flee,|Flee at|God’s com-|mand:|
w: Break at|once thy|long de-|lay,|Stay not|in the|plain!|
w: Now the|warn- ing|voice o-|bey,|While the|Spir- it|calls:|
w: Har- den|not thy|heart to-|day,|Through the|temp- ter’s|power;|
 z2 [B,G]2 | [CE]2 C2 | [B,D]4 | [B,G]2 [DB]2 | [Ec]2 [DG]2 | [CE]2 C2 | [B,D]4 | [CE]2 [EG]2 | %22
w: No|more in-|quire.|Lo! the|ci- ty’s|doom is|sealed;|Wrath from|
w: In|threat- ening|form,|See the|clouds a-|bove thy|head,|All a-|
w: For|re- fuge|fly;|In the|fate of|So- dom|see|What may|
w: O,|turn and|live;|Je- sus|is the|hid- ing|place,|Flee to|
 [Gc]2 [Bd]2 | [ce]2 [eg]2 | [eg]4 | z2 [ce]2 | [df]4 | [Bd]4 | !fermata!c4 |] %29
w: Heav’n shall|be re-|vealed|In|li-|quid|fire!|
w: round their|folds are|spread,|O,|flee|the|storm!|
w: quick- ly|come to|thee:|Why|wilt|thou|die?|
w: Him, and|trust His|grace;|He|will|for-|give.|
V:2
 x4 | x4 | x4 | x4 | x4 | x4 | x4 | x4 | x4 | x4 | x4 | x4 | x4 | x4 | x4 | x2 C2 | x4 | x4 | x4 | %19
 x2 C2 | x4 | x4 | x4 | x4 | x4 | x4 | x4 | x4 | c4 |] %29
V:3
 [C,E,]2 [C,G,]2 | [C,E,]2 [E,G,]2 | [B,,G,]2 [D,G,]2 | G,4 | [C,E,]2 [E,G,]2 | [D,F,]2 [B,,G,]2 | %6
 [C,E,]4 | [G,,G,]2 [B,,G,]2 | [B,,G,]2 [G,,B,]2 | [C,F,]2 [C,E,]2 | (E,2 C2) | [A,,C,]2 [A,,C,]2 | %12
 [B,,D,]2 [D,^F,]2 | [G,,G,]4 | z2 [G,,D,]2 | [C,E,]2 [C,E,]2 | [D,G,]4 | [G,B,]2 [G,D]2 | %18
 [C,E,]2 [B,,D,]2 | [C,E,]2 [C,E,]2 | [D,G,]4 | [C,E,]2 [C,E,]2 | [E,A,]2 [G,B,]2 | %23
 [E,C]2 [C,G,]2 | [C,E,]4 | z2 [E,A,]2 | [F,D]4 | [D,G,]4 | !fermata![C,C]4 |] %29
V:4
 x4 | x4 | x4 | (B,,2 D,2) | x4 | x4 | x4 | x4 | x4 | x4 | C,4 | x4 | x4 | x4 | x4 | x4 | x4 | x4 | %18
 x4 | x4 | x4 | x4 | x4 | x4 | x4 | x4 | x4 | x4 | x4 |] %29

